common/src/main/resources/files/plugins/datagrip/mimerSQLFileType.svg

<!--
  - The MIT License (MIT)
  -
  - Copyright (c) 2015-2024 Elior "Mallowigi" Boukhobza
  -
  - Permission is hereby granted, free of charge, to any person obtaining a copy
  - of this software and associated documentation files (the "Software"), to deal
  - in the Software without restriction, including without limitation the rights
  - to use, copy, modify, merge, publish, distribute, sublicense, and/or sell
  - copies of the Software, and to permit persons to whom the Software is
  - furnished to do so, subject to the following conditions:
  -
  - The above copyright notice and this permission notice shall be included in all
  - copies or substantial portions of the Software.
  -
  - THE SOFTWARE IS PROVIDED "AS IS", WITHOUT WARRANTY OF ANY KIND, EXPRESS OR
  - IMPLIED, INCLUDING BUT NOT LIMITED TO THE WARRANTIES OF MERCHANTABILITY,
  - FITNESS FOR A PARTICULAR PURPOSE AND NONINFRINGEMENT. IN NO EVENT SHALL THE
  - AUTHORS OR COPYRIGHT HOLDERS BE LIABLE FOR ANY CLAIM, DAMAGES OR OTHER
  - LIABILITY, WHETHER IN AN ACTION OF CONTRACT, TORT OR OTHERWISE, ARISING FROM,
  - OUT OF OR IN CONNECTION WITH THE SOFTWARE OR THE USE OR OTHER DEALINGS IN THE
  - SOFTWARE.
  -->
<svg width="16px" height="16px" data-big="true" viewBox="0 0 16 17" fill="#FF7800" xmlns="http://www.w3.org/2000/svg">
  <path
    d="M9.39905 4.82736C9.39905 4.82736 9.33775 4.48642 9.46634 4.34514C9.59493 4.20386 9.95604 4.21804 9.95604 4.21804C9.95604 4.21804 9.71076 3.96712 9.83642 3.86292C9.98968 3.73582 10.7903 4.10913 11.3055 4.43112C11.4039 4.49263 11.4876 4.54334 11.5634 4.5893C11.8331 4.75282 12.0036 4.85612 12.3858 5.17128C12.5224 5.28385 12.607 5.45969 12.6963 5.64535C12.8084 5.87842 12.9279 6.12697 13.1671 6.28524C13.2633 6.34892 13.357 6.41414 13.4468 6.47668C13.8315 6.74456 14.1456 6.96328 14.2886 6.8011C14.5241 6.53398 14.1549 6.25582 13.7576 5.95646C13.6378 5.86621 13.5155 5.77404 13.4064 5.67966C13.0679 5.38687 13.0029 5.1766 12.9464 4.99378C12.9033 4.85448 12.8652 4.73112 12.7148 4.59934C12.5901 4.4901 12.4901 4.45775 12.3852 4.42379C12.2946 4.39445 12.2002 4.36392 12.083 4.28159C11.9388 4.18024 11.8744 4.07292 11.819 3.98063C11.7681 3.89591 11.7249 3.82385 11.6345 3.78068C11.2195 3.58256 11.0269 3.49202 10.6439 3.36201C10.1903 3.20809 9.71315 3.07346 9.39905 3.17884C8.96859 3.32326 8.91572 3.60902 8.943 4.04982C8.96475 4.40117 9.39905 4.82736 9.39905 4.82736Z"
  />
  <path
    d="M3.94136 9.87387C3.74995 10.1984 3.67221 11.0252 4.09088 11.1299C4.73265 11.2903 4.85472 9.74971 4.89897 9.19132L4.90206 9.1524C4.91698 8.96586 4.9108 8.78137 4.905 8.60805C4.89336 8.2604 4.88322 7.95762 5.04785 7.77302C5.16606 7.64048 5.30147 7.629 5.46266 7.61533C5.50681 7.61158 5.5529 7.60767 5.6011 7.60107C5.82076 7.57097 5.98558 7.62424 6.15571 7.67923C6.29901 7.72555 6.44607 7.77308 6.63283 7.77302C6.71555 7.773 6.78591 7.74223 6.8502 7.71411C6.9476 7.67152 7.03108 7.63501 7.12252 7.72069C7.21718 7.80939 7.21062 7.95948 7.20411 8.1084C7.20037 8.19411 7.19664 8.27943 7.21224 8.35244C7.24169 8.49035 7.32137 8.59718 7.3958 8.69696C7.47523 8.80345 7.54867 8.90192 7.54867 9.02157C7.54867 9.41099 7.74381 9.75725 8.16173 9.6907C8.74862 9.59724 8.49816 8.77485 8.18042 8.51318C7.95688 8.32909 7.77864 7.98537 7.99725 7.79546C8.25397 7.57243 8.5075 7.83975 8.70855 8.05173C8.74484 8.08999 8.77958 8.12662 8.81216 8.15806C8.96784 8.30827 8.99312 8.44983 9.02544 8.63083C9.05122 8.7752 9.08148 8.94467 9.18598 9.16362C9.28333 9.36758 9.30205 9.58284 9.32093 9.79986C9.33284 9.93676 9.34481 10.0744 9.37662 10.2103C9.41338 10.3673 9.46902 10.4769 9.52622 10.5895C9.57469 10.6849 9.62428 10.7825 9.66446 10.9131C9.75274 11.2 9.77144 11.3919 9.79347 11.618C9.8013 11.6983 9.80954 11.7828 9.82146 11.8775C9.89406 12.4539 10.0788 13.0274 10.5878 12.9055C10.9466 12.8195 11.0049 12.1665 10.8308 11.6831C10.7738 11.5249 10.7074 11.4165 10.6388 11.3042C10.5371 11.1381 10.4303 10.9635 10.3411 10.6065C10.3195 10.5203 10.3021 10.4407 10.2848 10.3614C10.2397 10.1547 10.1952 9.95094 10.0794 9.6421C10.0023 9.43645 9.92504 9.29871 9.85073 9.16618C9.76152 9.00709 9.67651 8.85547 9.60092 8.60289C9.52967 8.36482 9.51195 8.20105 9.49452 8.03988C9.47445 7.85435 9.45476 7.67227 9.3542 7.38426C9.31017 7.25816 9.22882 7.17746 9.14756 7.09685C9.03355 6.98375 8.91971 6.87081 8.90936 6.63289C8.9025 6.47527 8.95996 6.35594 9.01933 6.23266C9.10519 6.05435 9.19504 5.86777 9.1 5.54509C9.03395 5.32082 8.92132 5.22602 8.80209 5.12566C8.70977 5.04796 8.6135 4.96692 8.53181 4.81989C8.46439 4.69854 8.47733 4.6 8.48934 4.5085C8.50398 4.39704 8.51725 4.29602 8.38228 4.17693C8.00099 3.84049 7.11234 3.91303 6.71506 4.17692C6.34128 4.42521 6.25443 4.70273 6.1823 4.9332C6.1291 5.10318 6.08392 5.24757 5.93753 5.33575C5.75505 5.44569 5.61202 5.48557 5.46869 5.52554C5.25402 5.5854 5.03866 5.64545 4.68899 5.94133C4.20278 6.35275 4.2029 6.5926 4.20302 6.83452L4.20303 6.84596C4.20303 7.02622 4.25027 7.1245 4.29523 7.21804C4.33605 7.30295 4.37498 7.38395 4.37498 7.51883C4.37498 7.71507 4.34604 7.89087 4.31577 8.07467C4.28262 8.27603 4.24789 8.48699 4.24789 8.74495C4.24789 9.16362 4.11331 9.58229 3.94136 9.87387Z"
  />
  <path
    d="M9.4327 6.72634C9.44235 6.91317 9.61213 7.13754 9.61213 7.13754C9.61213 7.13754 9.6805 6.91729 9.79904 6.78989C9.89128 6.69075 9.96145 6.66098 10.0408 6.62734C10.0993 6.6025 10.1628 6.57554 10.2439 6.51701C10.3527 6.43844 10.3604 6.33922 10.3673 6.25098C10.3731 6.1755 10.3784 6.10805 10.4457 6.06843C10.627 5.96181 10.8636 6.17186 11.1076 6.38844C11.2058 6.4756 11.3052 6.56383 11.4027 6.63289C11.6953 6.84026 11.9147 7.00749 12.1343 7.17492C12.3522 7.341 12.5704 7.50735 12.8606 7.71322C13.125 7.90083 13.2842 8.06834 13.4315 8.22334C13.5924 8.39263 13.7391 8.547 13.9932 8.69635C14.0455 8.72708 14.0979 8.75951 14.1499 8.79172C14.4584 8.98285 14.754 9.16592 14.9427 8.93559C15.1255 8.71251 14.8343 8.20665 14.5801 8.02348C14.4454 7.92643 14.3428 7.87706 14.2377 7.82651C14.0891 7.755 13.9355 7.68113 13.6792 7.4665C13.4014 7.2338 13.1729 7.02372 12.9167 6.76747C12.7821 6.63286 12.6685 6.57246 12.5587 6.51406C12.4825 6.47353 12.4081 6.43396 12.3298 6.37122C12.2273 6.28918 12.1615 6.212 12.0959 6.13498C12.0294 6.05694 11.963 5.97907 11.8588 5.89647C11.7515 5.81145 11.6406 5.74407 11.5244 5.67352C11.3719 5.58084 11.2104 5.48271 11.0364 5.33201C10.704 5.04422 10.1504 4.60308 9.72053 4.97689C9.49575 5.17236 9.58075 5.42146 9.66477 5.66769C9.71178 5.80547 9.75849 5.94235 9.75044 6.06843C9.74196 6.20137 9.66442 6.29496 9.58802 6.38718C9.50602 6.48616 9.42532 6.58355 9.4327 6.72634Z"
  />
  <path
    d="M3.58996 6.70392C3.56294 6.93418 3.76192 7.27212 3.76192 7.27212C3.76192 7.27212 3.37443 7.1861 3.22736 7.40296C3.10277 7.58668 3.08444 7.75603 3.06372 7.94749C3.04777 8.09495 3.03039 8.25553 2.96196 8.4459C2.87751 8.68081 2.76615 8.8432 2.65461 9.00587C2.54426 9.16679 2.43374 9.32797 2.3489 9.55987C2.25293 9.8222 2.23682 10.0008 2.21857 10.2031C2.20151 10.3922 2.18258 10.6021 2.09471 10.9206C2.02744 11.1643 2.00193 11.4337 1.97864 11.6797C1.9413 12.074 1.90966 12.408 1.72089 12.4794C1.50982 12.5592 1.22078 12.4794 1.14521 12.3896C1.01611 12.2364 1.0898 11.9375 1.15963 11.6544C1.19348 11.5171 1.22642 11.3835 1.23493 11.2719C1.24384 11.1552 1.24911 11.0558 1.25395 10.9644C1.2668 10.722 1.27667 10.5358 1.34334 10.2327C1.39215 10.0108 1.47326 9.79561 1.56085 9.56317C1.64585 9.3376 1.73696 9.09581 1.81061 8.81598C1.83571 8.72058 1.90933 8.61864 1.99201 8.50417C2.09728 8.35842 2.21723 8.19235 2.2704 7.99358C2.4274 7.40669 2.58838 7.068 2.93579 6.6329C3.32082 6.15067 3.83668 6.23291 3.83668 6.23291C3.83668 6.23291 3.61417 6.49769 3.58996 6.70392Z"
  />
  <path
    d="M4.0049 6.0161C4.0049 6.0161 3.89592 5.62611 3.95257 5.35444C4.00583 5.09904 4.16938 4.80494 4.16938 4.80494C4.16938 4.80494 3.86337 4.96478 3.49651 5.07035C3.41016 5.09519 3.32227 5.11804 3.23811 5.13992C3.00123 5.2015 2.79396 5.25538 2.73393 5.32454C2.61737 5.45884 2.61189 5.65041 2.60733 5.81029C2.60436 5.91405 2.60178 6.00447 2.56945 6.05722C2.52345 6.13229 2.44053 6.19994 2.34786 6.27556C2.27508 6.33494 2.19628 6.39924 2.12461 6.47589C2.05959 6.54544 2.01799 6.61683 1.97841 6.68475C1.91752 6.78924 1.8614 6.88554 1.73211 6.95438C1.48969 7.08345 1.12717 7.07838 1.02933 6.98054C0.951132 6.90234 1.04334 6.79588 1.14133 6.68276C1.18855 6.62825 1.2371 6.5722 1.26858 6.51701C1.28775 6.4834 1.30595 6.45142 1.32334 6.42087C1.47806 6.14905 1.56854 5.99008 1.70968 5.79181C1.75982 5.72138 1.78919 5.65486 1.81984 5.58544C1.85504 5.50573 1.89192 5.4222 1.96387 5.32454C2.06528 5.18691 2.09476 5.0835 2.12114 4.99093C2.14922 4.8924 2.17381 4.80615 2.27788 4.70401C2.43071 4.55401 2.58981 4.53033 2.78149 4.5018C2.84299 4.49264 2.90784 4.48299 2.97691 4.46851C3.09708 4.44331 3.18502 4.40409 3.27419 4.36432C3.357 4.32739 3.44087 4.28998 3.55259 4.26291C3.63586 4.24273 3.69788 4.23944 3.75787 4.23626C3.86502 4.23058 3.96568 4.22525 4.16938 4.1246C4.52904 3.94688 4.81982 3.85919 5.02542 3.97133C5.13134 4.02911 5.09222 4.19695 5.04767 4.38809C5.02072 4.50374 4.99178 4.62792 4.99178 4.74139C4.99178 4.97315 5.1114 5.25352 5.1114 5.25352C5.1114 5.25352 4.70535 5.36327 4.48712 5.51145C4.26161 5.66458 4.0049 6.0161 4.0049 6.0161Z"
  />
</svg>

<svg xmlns="http://www.w3.org/2000/svg" width="16" height="16" fill="#FF7800" data-big="true" viewBox="0 0 16 17"><path d="M9.4 4.827s-.062-.34.066-.482c.129-.141.49-.127.49-.127s-.245-.25-.12-.355c.154-.127.954.246 1.47.568q.146.091.257.158c.27.164.44.267.823.582.136.113.221.289.31.474.112.233.232.482.471.64q.144.097.28.192c.385.268.699.486.842.324.235-.267-.134-.545-.531-.845a7 7 0 0 1-.352-.276c-.338-.293-.403-.503-.46-.686-.043-.14-.08-.263-.231-.395-.125-.109-.225-.141-.33-.175-.09-.03-.185-.06-.302-.142-.144-.102-.209-.21-.264-.301-.05-.085-.094-.157-.185-.2a8 8 0 0 0-.99-.419c-.454-.154-.93-.289-1.245-.183-.43.144-.483.43-.456.87.022.352.456.778.456.778M3.941 9.874c-.191.324-.269 1.151.15 1.256.642.16.764-1.38.808-1.939l.003-.039c.015-.186.009-.37.003-.544-.012-.348-.022-.65.143-.835.118-.133.253-.144.415-.158q.066-.004.138-.014c.22-.03.385.023.555.078.143.047.29.094.477.094.083 0 .153-.03.217-.059.098-.042.181-.079.273.007.094.088.088.238.081.387-.004.086-.007.171.008.244.03.138.11.245.184.345.08.106.153.205.153.325 0 .389.195.735.613.669.587-.094.336-.916.018-1.178-.223-.184-.401-.528-.183-.718.257-.223.51.045.712.257q.054.058.103.106c.156.15.181.292.213.473.026.144.056.314.161.533.097.204.116.419.135.636.012.137.024.274.056.41.036.157.092.267.15.38.048.095.097.193.137.323.089.287.107.479.13.705q.01.119.027.26c.073.576.258 1.15.767 1.027.359-.085.417-.739.243-1.222-.057-.158-.124-.267-.192-.379a2.2 2.2 0 0 1-.298-.697l-.056-.246a4.6 4.6 0 0 0-.206-.719c-.077-.206-.154-.343-.228-.476a2.5 2.5 0 0 1-.25-.563 3 3 0 0 1-.106-.563c-.02-.186-.04-.368-.14-.656a.75.75 0 0 0-.207-.287c-.114-.113-.228-.226-.239-.464-.007-.158.051-.277.11-.4.086-.179.176-.365.081-.688-.066-.224-.179-.319-.298-.42a1 1 0 0 1-.27-.305c-.068-.121-.055-.22-.043-.312.015-.111.028-.212-.107-.331-.381-.337-1.27-.264-1.667 0-.374.248-.46.526-.533.756-.053.17-.098.315-.244.403-.183.11-.326.15-.47.19-.214.06-.43.12-.779.415-.486.412-.486.652-.486.894v.011c0 .18.047.279.092.372.041.085.08.166.08.3 0 .197-.029.373-.06.557a4 4 0 0 0-.067.67c0 .419-.135.837-.307 1.129"/><path d="M9.433 6.726c.01.187.18.412.18.412s.068-.22.186-.348a.6.6 0 0 1 .242-.163c.058-.024.122-.051.203-.11.109-.079.116-.178.123-.266.006-.075.011-.143.079-.183.181-.106.418.104.662.32.098.088.197.176.295.245.292.207.512.374.731.542.218.166.436.332.727.538.264.188.423.355.57.51.161.17.308.324.562.473q.08.047.157.096c.308.19.604.374.793.144.183-.223-.109-.73-.363-.913a2 2 0 0 0-.342-.196c-.149-.072-.303-.146-.559-.36a11 11 0 0 1-.762-.7c-.135-.134-.248-.195-.358-.253-.076-.04-.15-.08-.23-.143a1.6 1.6 0 0 1-.233-.236 1.6 1.6 0 0 0-.237-.239 3 3 0 0 0-.335-.222c-.152-.093-.314-.191-.488-.342-.332-.288-.886-.729-1.315-.355-.225.195-.14.444-.056.69.047.138.093.275.085.401-.008.133-.086.227-.162.32-.082.098-.163.196-.155.338M3.59 6.704c-.027.23.172.568.172.568s-.388-.086-.535.131c-.124.184-.143.353-.163.544a2 2 0 0 1-.102.499c-.084.235-.196.397-.307.56-.11.16-.221.322-.306.554-.096.262-.112.44-.13.643-.017.19-.036.4-.124.718a4.5 4.5 0 0 0-.116.759c-.038.394-.07.728-.258.8-.211.08-.5 0-.576-.09-.129-.154-.055-.453.015-.736.033-.137.066-.27.075-.382.009-.117.014-.216.019-.308.013-.242.023-.428.09-.731.048-.222.13-.437.217-.67.085-.225.176-.467.25-.747.025-.095.098-.197.181-.312.105-.146.225-.312.278-.51.157-.587.318-.926.666-1.361.385-.482.9-.4.9-.4s-.222.265-.246.47"/><path d="M4.005 6.016s-.11-.39-.052-.662c.053-.255.216-.55.216-.55s-.306.16-.672.266q-.132.037-.259.07c-.237.062-.444.115-.504.185-.117.134-.122.325-.127.485-.003.104-.005.194-.038.247-.046.075-.128.143-.221.219-.073.059-.152.123-.223.2-.065.07-.107.14-.147.209-.06.104-.117.2-.246.27-.242.128-.605.123-.703.026-.078-.079.014-.185.112-.298a1 1 0 0 0 .128-.166l.054-.096c.155-.272.246-.43.387-.63.05-.07.08-.136.11-.206.035-.08.072-.163.144-.26a.9.9 0 0 0 .157-.334.56.56 0 0 1 .157-.287c.153-.15.312-.174.503-.202q.093-.013.196-.033c.12-.026.208-.065.297-.105.083-.037.167-.074.279-.101.083-.02.145-.024.205-.027.107-.005.208-.01.411-.111.36-.178.65-.266.856-.154.106.058.067.226.023.417-.027.116-.056.24-.056.353 0 .232.12.513.12.513s-.407.11-.625.257c-.225.154-.482.505-.482.505"/></svg>
